X:2883
T:Ivy Leaf, The
O:england
R:reel
H:2 versions. 3rd version: #194. Version in Emix: #696
D:Mary Bergin: Feadoga Stain 2
D:Cran: The Crooked Stair
M:C|
K:Amix
A2ed cdec|AEAe dBGB|A2ed cdec|1 AGEF GABG:|2 AGEF GABd||
|:eaag ed (3Bcd|~g3d BGBd|1 eaag edcB|AGEF GABd:|2 ~A3B =cBcd|(3efg fa gedB||
